icons/mouse-alt.svg

<svg width="24" height="24" viewBox="0 0 24 24" fill="none" xmlns="http://www.w3.org/2000/svg">
<path fill-rule="evenodd" clip-rule="evenodd" d="M6.23031 6.13653C8.43742 3.92942 12.0626 3.92942 14.2697 6.13653L17.8697 9.73653C20.0768 11.9436 20.0768 15.5688 17.8697 17.7759C15.555 20.0905 11.9299 20.0755 9.73031 17.8759L6.13031 14.2759C3.92321 12.0688 3.92322 8.44364 6.13031 6.23653L6.23031 6.13653ZM15.3303 5.07587C12.5374 2.28298 7.96257 2.28298 5.16967 5.07585L5.06965 5.17587C2.27675 7.96876 2.27675 12.5436 5.06965 15.3365L8.66965 18.9365C11.47 21.7369 16.045 21.7219 18.9303 18.8365C21.7232 16.0436 21.7232 11.4688 18.9303 8.67587L15.3303 5.07587ZM9.63031 8.57587C9.33741 8.28298 8.86254 8.28298 8.56965 8.57587C8.27675 8.86876 8.27675 9.34364 8.56964 9.63653L9.96964 11.0365C10.2625 11.3294 10.7374 11.3294 11.0303 11.0365C11.3232 10.7436 11.3232 10.2688 11.0303 9.97587L9.63031 8.57587Z" fill="black"/>
</svg>

<svg xmlns="http://www.w3.org/2000/svg" fill="none" viewBox="0 0 24 24">
  <path fill="#000" fill-rule="evenodd" d="M6.23 6.137c2.207-2.208 5.833-2.208 8.04 0l3.6 3.6c2.207 2.207 2.207 5.832 0 8.039-2.315 2.314-5.94 2.3-8.14.1l-3.6-3.6c-2.207-2.207-2.207-5.832 0-8.04l.1-.1Zm9.1-1.061c-2.793-2.793-7.367-2.793-10.16 0l-.1.1c-2.793 2.793-2.793 7.368 0 10.16l3.6 3.6c2.8 2.8 7.375 2.786 10.26-.1 2.793-2.792 2.793-7.367 0-10.16l-3.6-3.6Zm-5.7 3.5a.75.75 0 0 0-1.06 1.06l1.4 1.4a.75.75 0 1 0 1.06-1.06l-1.4-1.4Z" clip-rule="evenodd"/>
</svg>
